!!!OTL: Folk song Number 26
!!!CNT: Chinese
!! Irregular meter.
**kern
*k[f#]
*M4/4
=1
8e
8g
8g
8a
2b
*M5/4
=2
(8a
8b)
2g
(4.a
16g
16a)
*M4/4
=3
8g
8a
8b
8g
2e
*M5/4
=4
(8g
8e)
2d
(16g
4..e)
*M4/4
=5
8g
8e
8d
8g
2e
*M5/4
=6
8a
8g
(4.a
16g
16a)
(16e
4..g)
*M4/4
=7
8a
8g
8e
8g
2e
*M5/4
=8
(8g
8e)
(4.d
8g)
(16d
4..e)
==
*-
!!!PPR: Yin yueh ch'u pan she
!!!OPR: Chung-kuo min ko Chung-kuo yin yueh yen chiu so pien [Chinese folk songs]
!!!OCL: Chung-kuo yin yueh yen chiu so
!!!PPP: Beijing, China
!!!PDT: 1959///
!!!SML: Edward Johnson Library, University of Toronto M1804.C4694C5
!!!PPG: p.20
!!!ENC: David Huron
!!!EMD: Paul von Hippel updated this file in the following ways (1998/9/29/):
!!!EMD:  (1) changed the representation of slurs from curly braces to parentheses 
!!!EMD:  (2) changed freeform comments into reference records and tandem interpretations
!!!EMD:  (3) corrected the author, title, author, and call number of the printed source 
!!!EEV: Version 2.0
